X:058
T: Rake's March (The)
N: O'Farrell's Pocket Companion v.1 (Sky ed. p.43)
N: "Irish"
M: 6/8
L: 1/8
R: jig
Q: 320
K: G
d/c/|BGG DGG|BAB G2c|BGG DGG|ABG F2c|
BGG DGG|BAB G2c|BdB cAG|FDD D2:|
d|gdB BAG| GBB B2d|gdB BAG|FAA A2d|
gdB BAG|GBG c2A|BdB cAG| FDD D2:|
